dist/img/svg/game.svg

<svg width="36" height="25" viewBox="0 0 36 25" fill="none" xmlns="http://www.w3.org/2000/svg">
<path d="M18 0.75C10.0215 0.75 3.03911 3.32812 3.03911 3.32812L2.29692 3.60156L2.21879 4.34375L0.539106 17.1562C0.085005 20.7012 2.61918 24.0068 6.16411 24.4609C9.46489 24.8857 12.4239 22.6592 13.1954 19.5H22.8047C23.5811 22.6592 26.5352 24.8857 29.836 24.4609C33.3809 24.0068 35.9151 20.7012 35.461 17.1562L33.7813 4.34375L33.7032 3.60156L32.961 3.32812C32.961 3.32812 25.9786 0.75 18 0.75ZM18 3.25C24.8555 3.25 30.5098 5.1543 31.4375 5.47656L32.961 17.5078C33.2442 19.71 31.7256 21.6777 29.5235 21.9609C27.3213 22.2441 25.3145 20.7256 25.0313 18.5234L24.9922 18.0938L24.836 17H11.1641L11.0079 18.0938L10.9688 18.5234C10.6856 20.7256 8.67875 22.2441 6.47661 21.9609C4.27446 21.6777 2.7559 19.71 3.03911 17.5078L4.56254 5.47656C5.49028 5.1543 11.1446 3.25 18 3.25ZM9.25004 7V9.5H6.75004V12H9.25004V14.5H11.75V12H14.25V9.5H11.75V7H9.25004ZM25.5 7C24.8116 7 24.25 7.56152 24.25 8.25C24.25 8.93848 24.8116 9.5 25.5 9.5C26.1885 9.5 26.75 8.93848 26.75 8.25C26.75 7.56152 26.1885 7 25.5 7ZM23 9.5C22.3116 9.5 21.75 10.0615 21.75 10.75C21.75 11.4385 22.3116 12 23 12C23.6885 12 24.25 11.4385 24.25 10.75C24.25 10.0615 23.6885 9.5 23 9.5ZM28 9.5C27.3116 9.5 26.75 10.0615 26.75 10.75C26.75 11.4385 27.3116 12 28 12C28.6885 12 29.25 11.4385 29.25 10.75C29.25 10.0615 28.6885 9.5 28 9.5ZM25.5 12C24.8116 12 24.25 12.5615 24.25 13.25C24.25 13.9385 24.8116 14.5 25.5 14.5C26.1885 14.5 26.75 13.9385 26.75 13.25C26.75 12.5615 26.1885 12 25.5 12Z" fill="white"/>
</svg>

<svg width="36" height="25" viewBox="0 0 36 25" fill="none" xmlns="http://www.w3.org/2000/svg"><path d="M18 .75C10.021.75 3.04 3.328 3.04 3.328l-.743.274-.078.742-1.68 12.812c-.454 3.545 2.08 6.85 5.625 7.305 3.3.425 6.26-1.802 7.031-4.961h9.61c.776 3.16 3.73 5.386 7.031 4.96 3.545-.453 6.08-3.759 5.625-7.304l-1.68-12.812-.078-.742-.742-.274S25.979.75 18 .75zm0 2.5c6.855 0 12.51 1.904 13.438 2.227l1.523 12.03a3.948 3.948 0 01-3.438 4.454c-2.202.283-4.209-1.235-4.492-3.438l-.039-.43L24.836 17H11.164l-.156 1.094-.04.43c-.282 2.202-2.29 3.72-4.491 3.437a3.948 3.948 0 01-3.438-4.453L4.563 5.477C5.49 5.154 11.145 3.25 18 3.25zM9.25 7v2.5h-2.5V12h2.5v2.5h2.5V12h2.5V9.5h-2.5V7h-2.5zM25.5 7c-.688 0-1.25.562-1.25 1.25s.562 1.25 1.25 1.25c.689 0 1.25-.562 1.25-1.25S26.189 7 25.5 7zM23 9.5c-.688 0-1.25.562-1.25 1.25S22.312 12 23 12c.689 0 1.25-.562 1.25-1.25S23.689 9.5 23 9.5zm5 0c-.688 0-1.25.562-1.25 1.25S27.312 12 28 12c.689 0 1.25-.562 1.25-1.25S28.689 9.5 28 9.5zM25.5 12c-.688 0-1.25.562-1.25 1.25s.562 1.25 1.25 1.25c.689 0 1.25-.562 1.25-1.25S26.189 12 25.5 12z" fill="#fff"/></svg>
